X:3
T:Boys of Bluehill
M:4/4
L:1/8
R:hornpipe
C:Traditional
K:D
dB | BA FA DA FA | BA (3Bcd e2 de | fa gf eg fe | df ed B2 dB |
BA FA DA FA | BA (3Bcd e2 de | fa gf eg fe | d2 c2 d2 :|
|: fg | af df a2 gf | ef ga b2 ag | fa gf eg fe | df ed B2 dB|
BA FA DA FA | BA (3Bcd e2 de | fa gf eg fe | d2 c2 d2 :|

%%newpage
%%scale .7
%%staffsep 35

